icons/filled/exchange.svg

<svg xmlns="http://www.w3.org/2000/svg" width="24" height="24" viewBox="0 0 24 24" fill="currentColor"><path d="M19 3a3 3 0 0 1 1 5.83v4.17a6 6 0 0 1 -6 6h-.585l1.292 1.293a1 1 0 0 1 .083 1.32l-.083 .094a1 1 0 0 1 -1.414 0l-2.959 -2.959a1 1 0 0 1 -.238 -.32l-.038 -.091l-.028 -.094a.98 .98 0 0 1 .187 -.866l.076 -.084l3 -3a1 1 0 0 1 1.414 1.414l-1.293 1.293h.586a4 4 0 0 0 3.995 -3.8l.005 -.2v-4.171a3 3 0 0 1 -2 -2.829l.005 -.176a3 3 0 0 1 2.995 -2.824m-8.293 -.707l3 3a.98 .98 0 0 1 .263 .95l-.01 .031l-.003 .018l-.008 .018l-.007 .027l-.016 .035l-.01 .032l-.007 .01l-.005 .014a1 1 0 0 1 -.232 .316l-2.965 2.963a1 1 0 0 1 -1.32 .083l-.094 -.083a1 1 0 0 1 0 -1.414l1.291 -1.293h-.584a4 4 0 0 0 -3.995 3.8l-.005 .2v4.171a3.001 3.001 0 1 1 -4 2.829l.005 -.176a3 3 0 0 1 1.995 -2.654v-4.17a6 6 0 0 1 6 -6h.585l-1.292 -1.293a1 1 0 0 1 -.083 -1.32l.083 -.094a1 1 0 0 1 1.414 0"/></svg>

<svg xmlns="http://www.w3.org/2000/svg" width="24" height="24" fill="currentColor"><path d="M19 3a3 3 0 0 1 1 5.83V13a6 6 0 0 1-6 6h-.585l1.292 1.293a1 1 0 0 1 .083 1.32l-.083.094a1 1 0 0 1-1.414 0l-2.959-2.959a1 1 0 0 1-.238-.32l-.038-.091-.028-.094a.98.98 0 0 1 .187-.866l.076-.084 3-3a1 1 0 0 1 1.414 1.414L13.414 17H14a4 4 0 0 0 3.995-3.8L18 13V8.829A3 3 0 0 1 16 6l.005-.176A3 3 0 0 1 19 3m-8.293-.707 3 3a.98.98 0 0 1 .263.95l-.01.031-.003.018-.008.018-.007.027-.016.035-.01.032-.007.01-.005.014a1 1 0 0 1-.232.316l-2.965 2.963a1 1 0 0 1-1.32.083l-.094-.083a1 1 0 0 1 0-1.414L10.584 7H10a4 4 0 0 0-3.995 3.8L6 11v4.171A3.001 3.001 0 1 1 2 18l.005-.176A3 3 0 0 1 4 15.17V11a6 6 0 0 1 6-6h.585L9.293 3.707a1 1 0 0 1-.083-1.32l.083-.094a1 1 0 0 1 1.414 0"/></svg>
